/* XPM */
static char *d07123fb715342449945387f2f1897ceeKaCrJuBF67b8RGS[] = {
/* columns rows colors chars-per-pixel */
"64 64 256 2 ",
"   c #0A0402",
".  c #140200",
"X  c #180A05",
"o  c #19140C",
"O  c #1B1615",
"+  c #0A1011",
"@  c #250903",
"#  c #360901",
"$  c #271509",
"%  c #391705",
"&  c #251914",
"*  c #351614",
"=  c #28221B",
"-  c #3A261C",
";  c #38220E",
":  c #331927",
">  c #2A2826",
",  c #362B27",
"<  c #39332D",
"1  c #3A3937",
"2  c #2B2F35",
"3  c #141B2B",
"4  c #471704",
"5  c #52100A",
"6  c #6B160D",
"7  c #49250D",
"8  c #562707",
"9  c #482717",
"0  c #572818",
"q  c #5A341A",
"w  c #4D301A",
"e  c #66250A",
"r  c #693519",
"t  c #6F2E17",
"y  c #573626",
"u  c #463A39",
"i  c #5A3B36",
"p  c #4C2F27",
"a  c #683925",
"s  c #753A26",
"d  c #6C2E2F",
"f  c #581825",
"g  c #3C443D",
"h  c #73441E",
"j  c #46423D",
"k  c #574439",
"l  c #58412C",
"z  c #6A432A",
"x  c #774727",
"c  c #7A4934",
"v  c #795439",
"b  c #674837",
"n  c #3E314F",
"m  c #4B3C46",
"M  c #344D6F",
"N  c #38484F",
"B  c #484945",
"V  c #554A48",
"C  c #585756",
"Z  c #514E52",
"A  c #665549",
"S  c #785647",
"D  c #6D5350",
"F  c #76665A",
"G  c #525665",
"H  c #6A5A69",
"J  c #58656A",
"K  c #656765",
"L  c #746A77",
"P  c #726E6F",
"I  c #566058",
"U  c #8C382F",
"Y  c #874B36",
"T  c #885839",
"R  c #965B38",
"E  c #94522E",
"W  c #9C6137",
"Q  c #A46739",
"!  c #A0413B",
"~  c #875945",
"^  c #945B46",
"/  c #8F5151",
"(  c #AB534D",
")  c #976647",
"_  c #896958",
"`  c #996854",
"'  c #926E51",
"]  c #A66949",
"[  c #A77658",
"{  c #AC7157",
"}  c #B15B6C",
"|  c #977867",
" . c #877578",
".. c #8E6F6B",
"X. c #A87967",
"o. c #B57965",
"O. c #A57D7A",
"+. c #B26E6E",
"@. c #8F5967",
"#. c #FD555C",
"$. c #F9585A",
"%. c #EC575C",
"&. c #CF5B6A",
"*. c #FC5B64",
"=. c #F65D6B",
"-. c #FA5C6B",
";. c #F65966",
":. c #FC5D74",
">. c #F65D7C",
",. c #FA5D7C",
"<. c #F55C73",
"1. c #EC596D",
"2. c #D86878",
"3. c #CE6A71",
"4. c #EA676C",
"5. c #FA616C",
"6. c #F5646C",
"7. c #E86677",
"8. c #FB6273",
"9. c #F6627D",
"0. c #FB627C",
"q. c #F56776",
"w. c #F07679",
"e. c #C65E55",
"r. c #7C817D",
"t. c #99867A",
"y. c #92836E",
"u. c #B98869",
"i. c #B88774",
"p. c #AC8B73",
"a. c #AA825B",
"s. c #C99479",
"d. c #CB9075",
"f. c #CE916D",
"g. c #3E638C",
"h. c #567697",
"j. c #737488",
"k. c #867A89",
"l. c #937D8B",
"z. c #B17987",
"x. c #A27EAA",
"c. c #FB5D85",
"v. c #F65E8B",
"b. c #FB5E8C",
"n. c #F55985",
"m. c #FD5D93",
"M. c #FE5A98",
"N. c #EA5D85",
"B. c #D97788",
"V. c #D27286",
"C. c #EA6787",
"Z. c #F56383",
"A. c #FB6384",
"S. c #F6628C",
"D. c #FA628C",
"F. c #F86A87",
"G. c #E77588",
"H. c #F87389",
"J. c #FC6392",
"K. c #F96996",
"L. c #E97794",
"P. c #FA7798",
"I. c #EA6997",
"U. c #D474B1",
"Y. c #E56AA8",
"T. c #ED6FAA",
"R. c #BA7DCC",
"E. c #C379C8",
"W. c #668EAC",
"Q. c #3D99F6",
"!. c #3BA9FA",
"~. c #3AB7F9",
"^. c #37B2EA",
"/. c #3996D3",
"(. c #788FDB",
"). c #479BFB",
"_. c #5390EF",
"`. c #7193EA",
"'. c #46A8FC",
"]. c #44B8FB",
"[. c #55AFEE",
"{. c #6DB4F4",
"}. c #5FA3D4",
"|. c #38C8F8",
" X c #3BC2EF",
".X c #47C5FC",
"XX c #56C7FD",
"oX c #4FD2FB",
"OX c #65CAFD",
"+X c #79C9FC",
"@X c #68D5FC",
"#X c #72CFF5",
"$X c #978789",
"%X c #958995",
"&X c #8A9597",
"*X c #959798",
"=X c #8B8A8C",
"-X c #AF918E",
";X c #B6A69A",
":X c #9B98A3",
">X c #8D97A7",
",X c #A998A8",
"<X c #B48DAA",
"1X c #B8A7B7",
"2X c #B2A8AF",
"3X c #9BA1A1",
"4X c #CA9A85",
"5X c #D79887",
"6X c #D18A8F",
"7X c #EB8A90",
"8X c #D0A692",
"9X c #E7B095",
"0X c #CF97AC",
"qX c #F395A4",
"wX c #D7B6A7",
"eX c #D6A4BD",
"rX c #CAB2AE",
"tX c #F2AFA8",
"yX c #D1C4B6",
"uX c #EFC8B9",
"iX c #8C8ED8",
"pX c #B089D0",
"aX c #91AED7",
"sX c #B3ADCA",
"dX c #858BE4",
"fX c #9BBCEB",
"gX c #8FB9EF",
"hX c #A9B7E8",
"jX c #B9BAE7",
"kX c #B1AEE0",
"lX c #C783C6",
"zX c #DBA5C3",
"xX c #DCAAC4",
"cX c #DCADCA",
"vX c #D5A8C5",
"bX c #D7B7CA",
"nX c #D8ABD3",
"mX c #D9B6D8",
"MX c #C8B3CD",
"NX c #E3ACC8",
"BX c #E4B4CC",
"VX c #E8B7D5",
"CX c #F3B9D7",
"ZX c #ECAFCF",
"AX c #C7B8E4",
"SX c #D5B8E4",
"DX c #E5BAE4",
"FX c #8ECAF5",
"GX c #AAC3EE",
"HX c #DAC6CC",
"JX c #E8C7D7",
"KX c #EECCD2",
"LX c #D3C7ED",
"PX c #EFD0E6",
"IX c #FCF1EE",
"UX c #FDE4D9",
/* pixels */
"*X*X:X:X>X>X>XsXbXBXKXJXHXJXCXVXBXBXKXJXbXbXHXHXJXMXPXPXJXPXVXDXDXDXDXVXZXZXNXNXNXNXZXVXCXCXZXNXBXVXVXcXxXcXVXVXVXVXBXBXcXBXBXBX",
"*X*X:X:X>X>X>XsXbXVXKXKXJXJXJXCXVXJXJXbX,Xl. . .$X%XbXJXJXPXVXDXDXDXDXCXCXZXNXNXNXNXNXZXVXCXVXBXxXBXBXxXzXzXcXBXVXBXcXcXcXcXcXcX",
"*X*X:X:X>X>X>XsXbXJXKXKXJXJXJXJXKXHX2X .H  .k.P H P L l.bXPXmXmXmXmXVXVXVXBXNXNXBXcXzXxXZXVXVXBXzXxXNXzXeXzXxXxXcXxXvXvXvXvXvXvX",
"*X*X:X*X&X&X&X1XbXKXCXBXJXJXJXJXJXl.A V C Z C C P Z P =Xk.,XPXmXmXmXVXVXVXNXxXxXBXzXeXeXBXVXBXNXxXNXNXxXzXzXxXzXxXvXeXzXxXxXxXvX",
"*X&X*X&X&X&X&X2XeXCXZXBXBXJXJXHX$XV > u B 1 B C C J P k.k.k.,XHXmXcXcXcXxXeXeXeXNXeX0XeXNXBXNXeXeXNXNXNXzXxXzXzXxXzXeXzXcXcXcXxX",
"*X&X*X&X&X&X&X2XeXCXZXZXBXJXPX1XZ u 1 1 Z K K B g B C L =XL L ,XBXNXcXvXvXzXzXzXxXeX0XeXxXNXxXeXzXNXNXxXxXxXzXzXzXvXvXvXcXcXcXvX",
"*X*X*X*X&X&X*XrXBXCXCXCXBXJXHX .u u C P P I g > g K P W.2Xj.Z ,XBXNXcXvXvXvXvXcXNXzXeXvXcXBXcXzXcXcXnXnXnXnXnXnXnXnXnXnXnXmXmXnX",
"*X*X*X=X=X=X$X1XBXCXCXCXVXJXrXV < C L P Z B B g K K =X3X1X:XJ L bXcXnXMXMXMXMXnXVXnXMXMXmXSXmXnXmXmXSXSXSXSXSXSXSXSXAXAXSXSXSXAX",
"%X=X%X=X$X$X$X1XbXPXDXDXmXPX .< j V P K B g > B K r.=X=X:X2X=XH l.PXAXjXjXjXjXAXAXAXjXjXGXAXAXkXkXjXjXjXjXjXjXjXjXhXkXhXhXhXhXhX",
"%X$X$Xt.t.t.$X1XmXLXLXLXLXbXK , B B K C B j 1 V C P *X=X2XL P k.L AXhXGXFXFXGXGXhXhXGXGXGXGXhXhXfXfXfXfXfXfXFXfXfXgXgXgXgXgXgXgX",
"$Xl.$XO.O.O.$X1XAXLXGXLXLX:Xj , V Z K Z j 1 < B u K 3X*X=X,X*XK G aXFXFX#X+XFXFXFXFXFX+XFXFXFXFXFX+X+X+X+X+X+X+X+X+X{.{.+X+X{.{.",
"z.z.O.O.O.z.z.sXhXGXGXhXGXj.1 j j j Z B < , = , B > C ,X*X=XP j.G aXFX#X@X@X@X+X+X#X@X@X@X@X+X+X@X@X@XOXOXOXOXOXOXXX].XXXXXX].].",
"z.z.-XO.z.z.<XsXfXFXFXgXhXJ g B < 1 B B u , = = & < V j =X%XK L J }.#XoXoXoXXXXXXXXXoXoXoXoXXXXXXXXXXX.X.X.XXXXX.X].].].].].].~.",
"6X-X6X6X6X6X<XsXgX+X+X{.aXG 1 1 , 1 1 1 < > & & & , , O Z =XK J h.}.#X.X.X.XoXXX]..X X|.|.|..X]..X.X.X~.~.~..X.X].~.~.~.~.~.!.!.",
"6X6X6X6X6X6Xx.aX{.OX[.[.W.N > = = = O O O X o o < , > & + K Z Z h.W.[.^.|.|.].].].]. X|.|.|.].].]..X].~.~.~.].].].~.!.!.!.!.!.!.",
"0X0X0X0X0X<Xx.iX{.].^.[.W.N > - & O X X X $ , p V A F < O 1 g G h.W.[.^.|.~.~.'.'.].~. X~.~.~.'.].].~.!.!.!.].].'.!.!.!.'.!.Q.Q.",
"vXMXsXsXsXpXiX`.'.~.].[.h.2 p 7 % $ % % w v ~ _ O.t.t.k = Z B Z j.h.}.].^.~.].!.'.'.].~.~.~.'.'.].].'.!.!.'.'.'.'.).).).).).Q.Q.",
"kXhXaXaXaX(.`.[.!.!.!.}.h.3 p q 7 7 q a c ) ` X.i.-X;XA = j 1 2 j.h.}.[.~.~.!.).).'.'.~.!.!.).).'.'.).Q.Q.).).).).)._._.)._._._.",
"{.{.{.{.{.[.[.'.].!.!.[.M 3 u S z z T T ) ) ` X.4X4XwXF = , > 2 M g.}./.'.'.Q.)._._.).'.)._._._._._._._._._._._._._._._._._._._.",
"{.{.{.{.[.[.'.'.'.)._.}.M + A _ ) T R R R W ) [ 4Xi.wX_ - & > 2 3 M (.}.`.`.`.`.`.`.`.`.`.`.dXdXdXdXdX(.(.dXdXdXdXdXdXdXdXdXiXiX",
"[._.`.`.`._._._.`.`.(.iXM O S ` ] E E R R W Q o.i.i.8X.., & > > 3 n sXpXpXpXpXR.pXpXpXpXpXpXE.E.lXlXlXR.R.E.E.E.E.E.E.E.E.U.U.U.",
"`.dXdXdXdX(.(.iXiXpXpXpXH * / ) Q E E W W W W { [ i.wX| p & O o : : z.0XlXU.U.U.U.U.U.Y.Y.Y.Y.Y.Y.Y.Y.Y.Y.Y.Y.Y.Y.Y.Y.Y.Y.Y.I.I.",
"R.R.R.R.R.pXpXR.U.U.U.U.@.# Y R Q E W W W R R ] X.-XwX-Xk o X O & w } V.L.I.C.C.C.C.C.9.9.9.Z.C.C.F.S.S.S.J.J.S.m.m.b.b.b.b.v.v.",
"U.U.Y.Y.U.U.Y.Y.Y.T.I.L.&.5 E Q Q W Q W R R W [ p.-X8X;XA o   < ; ~ 3.2.7.A.0.q.6.6.6.6.5.5.q.q.9.Z.A.A.A.D.D.c.c.c.c.c.c.c.c.c.",
"v.v.N.C.C.C.Z.n.S.J.7.7.G.5 Y ) { W Q ] W T [ X.p.;XrX-X .V *XIXy.' ( 7X<.0.H.q.q.q.q.6.q.q.q.q.Z.F.F.S.J.D.J.D.J.D.D.D.b.b.v.v.",
",.:.q.7.6.8.:.:.<.A.Z.H.7X6 c ) [ Q W [ T ` ~ ' b D ..;XHXIXIX;Xb ~ ( G.0.:.=.<.q.q.q.q.8.q.q.q.Z.F.S.K.J.J.J.J.J.J.J.m.m.b.b.b.",
"-.5.4.4.6.5.:.:.F.A.>.7.G.s S ' [ ] T T ) v w 9 F t.yXUXIXIXIXA S +.3.q.A.,.,.F.0.0.0.0.0.0.0.9.Z.S.D.D.D.J.J.J.m.m.m.m.m.b.b.b.",
"-.5.4.4.6.8.:.,.<.A.K.C.B./ S | v x a ~ v y p.yXUXUXHXUXIXIXrX- X.5X7Xq.0.0.A.A.A.A.A.A.A.0.0.9.Z.A.D.D.D.D.D.D.b.b.b.b.b.b.b.b.",
":.8.q.q.q.0.,.,.A.>.n.C.G.( 5 % 4 # 4 z z wXUXwX..p k UXUXyX .S ^ ( 3.w.q.0.F.>.F.D.D.A.A.Z.9.9.9.F.Z.A.A.A.D.D.D.c.v.A.c.c.c.c.",
"9.9.9.9.9.>.c.c.c.A.P.7.V.} / X.9XuXi.4 | yXA $ . . p rXy t...| Y 6 U w.w.H.H.K.F.K.J.D.D.A.F.Z.F.F.A.A.A.S.D.D.v.v.v.v.v.v.v.v.",
"Z.c.c.c.c.c.c.c.c.>.9.2.tXuXuXUXtX8XUXuXwXS 9 @ @ . b wX_ wX8X4Xd.U ! 7XG.G.C.K.K.K.K.K.J.J.F.F.D.D.D.D.J.J.m.m.m.m.m.m.m.m.m.m.",
"S.D.b.b.b.D.D.D.D.A.C.2.tX5X` s r 0 c wXuXk $ . X . ..wX8X8Xi.8X5X( ( G.G.P.S.P.K.K.K.K.K.J.K.J.J.J.J.J.J.J.J.M.M.M.M.M.M.m.m.b.",
"v.v.b.b.m.m.m.m.b.J.S.C.qX/ f # 6 t 5 / | $X  X     ;X8X8X8Xu.9Xs.] ( G.P.P.b.K.K.S.K.P.J.K.K.m.J.J.D.D.S.S.D.J.m.M.M.M.m.b.A.A.",
"v.S.S.v.m.m.m.m.J.K.C.C.7XV.d 5 5 5 6 ` l -X=     = ;Xp.wX5Xs.f.f.{ 7XG.S.J.K.K.J.P.S.N.P.K.n.K.J.J.D.F.Z.Z.D.D.m.M.M.m.b.c.A.9.",
"v.S.S.v.m.m.m.m.m.J.C.L.L.qX+.t 6 5 5 o.S -XF   $ F wXp.tXs.s.s.{ ] 7XG.P.K.K.n.K.K.I.C.P.S.J.K.J.J.D.A.Z.Z.A.D.b.m.m.m.b.c.Z.9.",
"v.S.S.v.m.m.m.m.J.J.C.L.B.7XqX5 t 5 8 ` ~ b -X8XuXuX-X` 4Xs.d.9X{ ( 5XB.P.I.K.K.K.C.L.L.P.C.K.J.J.J.D.A.Z.0.A.A.D.b.b.v.v.c.Z.9.",
"v.S.S.v.m.m.m.m.m.J.K.C.L.2.qXU 5 5 ` ~ o.` ` 4X` ^ ~ ` 4X4Xu.8Xo.o.5X6XL.C.K.P.K.H.2.3.qXP.C.K.K.J.D.A.0.0.0.0.A.A.Z.Z.Z.Z.9.9.",
"v.S.S.S.D.J.m.m.b.J.K.C.P.B.7XqX6XtX5X~ X.X.c s ~ ^ 4Xd.4Xu.s.9Xd.5X6X} z.L.I.I.P.2.3.( V.G.P.C.K.J.D.A.,.:.8.8.0.9.9.Z.9.9.9.9.",
"v.v.S.S.D.J.m.m.J.J.K.C.G.B.3.6X5X^ 4 Y s.s.i.~ ^ o.5X5Xs.u.s.8X9X5XX.5 / V.7XL.L.&.3.` ` +.qXG.K.J.D.A.,.:.:.8.8.q.q.q.9.9.>.,.",
"v.b.S.S.D.J.m.m.J.v.K.K.I.G.L./ ^ 5 8 [ [ i.4X` 0 { d.9X5Xs.4X9Xo.o.| @ @.z.6XB.&.3.5X` ~ ^ 6X7XC.K.D.A.,.:.8.8.5.8.q.q.q.0.,.,.",
"v.v.v.S.S.D.b.b.b.J.S.K.C.L.G.} { Y r r a a % z 7 T u.9X9Xd.s.9Xi.-X| & $X-X0XV./ 9Xs.' a.` 5X7XG.I.C.Z.A.0.8.=.5.5.5.5.8.:.:.,.",
"v.v.v.S.D.D.J.J.b.J.D.J.K.I.G.&.] E 4 4 7 9 w v w z u.9X9Xd.5X8X5XwXF = P P O.+.} 5X[ a.a.) o.tXL.C.C.C.9.1.H.=.5.5.5.-.-.-.:.:.",
"v.v.v.D.D.D.D.J.b.J.b.J.K.I.I.&.( E 4 7 % * k A y 7 ' 8Xs.5X5X5X8X8X- o V K _ / s.d.T a.p.T ^ tXqXV.7X2.2.H.&.6.5.*.*.*.*.-.-.-.",
"v.D.b.D.D.J.J.J.b.J.b.J.S.K.I.3.! Y 4 a p - V V l % c u.s.9X5X4X4Xp.X o B P F S X.^ x a.a.x v d.tX6XB.qXqX} G.4.6.*.*.*.*.*.;.;.",
"v.D.D.D.D.D.D.D.D.J.b.J.J.J.K.2.! e 4 y 9 : u i 9 % z [ d.tXs.s.i._ $ o j C k y c r Y a.) x c ` 8X6X/ / UX6X2.&.6.*.*.#.#.#.;.;.",
"v.v.v.D.D.D.D.D.b.J.b.J.D.S.K.2.^ 8 % 9 * : : : . # r ` u.9Xs.s.i.b $ $ V I k - q x ] f.h T v T 4XwX_ . -XIXV.&.4.;.#.#.#.#.$.%.",
"v.v.v.S.D.D.D.D.b.J.b.J.D.S.K.C.R r % % * : : : @ # q [ { s.s.u.i.i @ = A P ..w q ) { ] t ] Y x p.uX;Xk @ ;XKXV.4.;.#.#.#.$.%.%.",
"c.v.v.S.D.D.D.D.D.D.D.J.D.S.K.C.! s # @ @ f i i y 4 q o.] d.s.[ | i @ - k A y.y r R ] t Y ] T z ' 8XrXA - i -X5X4.;.#.#.$.$.%.%.",
"c.c.A.A.A.A.A.A.D.D.D.D.D.D.D.C.( Y 4 # # c s ~ X.0 0 i.o.f.f.o.' y & $ & A p.q 8 r s t Y ) h x ^ ` 8X| w _ b X.3.%.-.*.*.%.$.$.",
"c.>.c.>.c.9.c.A.A.A.A.A.A.A.A.9.&.U 8 8 x T U ! ` a 7 ` o.f.o.{ _ p & X F ..v h 8 4 e r Y T T R ] { ~ p.q q p.wX7X1.;.%.6.;.#.#.",
",.:.,.,.,.,.,.0.0.0.,.0.0.0.9.q.7.U r 8 v r e s ^ ~ 4 v o.d.o.] S - . P IX$X9 c h 4 s s T ^ x T o.^ v 4Xz % F 8XtX7.;.%.5.;.#.#.",
"<.<.<.<.<.<.<.<.<.8.<.8.<.8.8.7.7.! t 8 x 8 e t Y ~ 7 z [ d.u.) l p X ,XJXl.; ' ` 4 ~ s c Y h ) u.[ i.4X~ $ X b 6X&.<.;.5.;.#.#.",
";.=.;.=.-.=.=.=.-.=.=.-.=.5.5.6.w.( e 8 h r e e c c q z ~ o.u.~ b . m MXbXrX- b ~ # s c s r x R ) s.8X4Xp.X   , / ( 7.1.1.;.;.*.",
";.=.=.;.;.=.=.=.=.=.=.=.=.5.5.6.w.e.t e e e e r T a a c c [ a.z i $ $XbX,XL m D b S 0 4 s a a q 8 [ 4X4X-X. X k D @.C.<.<.=.-.;.",
";.;.;.;.;.;.;.;.=.=.=.5.5.5.5.6.6.4.U e e x R ) [ a c T v ` ' q , H 1X,X:XH H u _ -XS 4 y 0 0 4 # 8 X.i._ X o j H @.C.>.>.<.-.;.",
";.;.;.;.;.;.=.=.=.-.5.5.5.5.5.5.%.w.( 6 t R ] x i.x T ~ ~ ' S 9 @.1X1Xl.%XH Z  . ...rX-Xy % # % % % c O.i . > > Z D V.Z.n.<.<.8.",
";.-.-.-.-.-.:.:.<.<.8.8.8.8.8.8.=.q.w.6 t ^ T a [ ) ^ ` ~ X.p D %X1X1X,X%Xk.k.MX%X .t.HX_ @ ; ; 7 % a ~ @ O 1 O 2 H } C.c.A.<.8.",
":.:.:.<.:.:.:.:.:.:.:.:.8.8.8.8.8.=.6.4.6 e s 7 x c a c ~ ~ b ..,X2X%X:XL 1XsXMXMX-X$XyXt.@ - u ; ; 9 4 . O 1 1 N H } C.n.c.>.,.",
":.:.,.,.:.:.:.:.,.,.,.,.0.0.0.0.8.8.q.4.} t a 4 0 a 0 0 S i A $XsXk.2X,X%X2XL %X .-X-XrXrX- . & & @ @ . . O > > J C @.V.n.c.n.c.",
",.,.>.,.,.:.,.:.>.,.>.,.>.9.0.0.8.0.0.H.7XY # 9 0 # 5 0 S @ < %Xk.k.1X=X=Xk.Z %X,X;X-X;XHXP   < u . . .   + > = J B D V.v.c.n.c.",
",.,.,.>.>.>.>.>.>.>.>.>.9.9.A.9.0.0.A.&.6X6X_ $ % # 0 y * . V H H sXk.L H k.1XbXPX..S p.rX;XO 2  ., $ . + & m B C 1 V V.C.c.n.n.",
",.,.,.>.>.>.>.>.>.>.>.>.9.9.A.A.A.1.F.P.3.f ;X-X..S d y & > =XG sX%XH -X$X-XJX0XrX9 S ;X-XKXZ 3 H u >     O O > B < V z.C.b.n.c.",
">.>.>.>.>.>.>.>.>.>.9.9.9.9.9.9.Z.H.1.G.f * ;XyXuXS ~ _ V n j.j.MXm  .rXrX-X-X-X..i X.p.| KXk.2 H C C 2 + O   O u u V O.N.b.n.b.",
">.>.>.>.9.>.>.>.>.9.9.9.9.9.9.9.>.Z.K.2.5 i yXyX-Xw 8XO.D G j.>Xj.H $X-XF D ..<X| O.4X| t.HXk.n L Z K B     O > u u B @.N.m.n.b."
};
