/* XPM */
static char *f7ceca0a1a5741bc87675d89bfe657a8lTr1aLDWfPw12yg7[] = {
/* columns rows colors chars-per-pixel */
"64 64 147 2 ",
"   c #030406",
".  c #060709",
"X  c #070A0B",
"o  c #0A0B0D",
"O  c #0E0F11",
"+  c #0F1012",
"@  c #131416",
"#  c #151718",
"$  c #16191A",
"%  c #1A1B1D",
"&  c #1D1F20",
"*  c #1E2122",
"=  c #222325",
"-  c #252728",
";  c #242829",
":  c #2A2B2D",
">  c #2D2F30",
",  c #312F32",
"<  c #2E3132",
"1  c #323335",
"2  c #353638",
"3  c #37383A",
"4  c #3A3B3D",
"5  c #3E3F41",
"6  c #3E4042",
"7  c #424345",
"8  c #464648",
"9  c #46494A",
"0  c #4A4B4D",
"q  c #4E4F51",
"w  c #4F5253",
"e  c #525355",
"r  c #555658",
"t  c #57595A",
"y  c #5A5B5D",
"u  c #5E5E60",
"i  c #5E6263",
"p  c #626365",
"a  c #666769",
"s  c #67696A",
"d  c #6A6B6D",
"f  c #6D6E70",
"g  c #6F7072",
"h  c #727375",
"j  c #757778",
"k  c #77797A",
"l  c #7A7B7D",
"z  c #7E7F81",
"x  c #7F8082",
"c  c #828385",
"v  c #868688",
"b  c #888689",
"n  c #86888A",
"m  c #8A8B8D",
"M  c #8D8E90",
"N  c #8E9192",
"B  c #929496",
"V  c #959798",
"C  c #96989A",
"Z  c #9A9B9D",
"A  c #9E9FA1",
"S  c #9FA0A2",
"D  c #A2A3A5",
"F  c #A6A7A9",
"G  c #A7A9AB",
"H  c #AAABAD",
"J  c #ADAFB0",
"K  c #AFB2B3",
"L  c #B2B3B5",
"P  c #B5B6B8",
"I  c #B6B9BA",
"U  c #B9BABC",
"Y  c #BDBEC0",
"T  c #BFC1C3",
"R  c #C2C3C5",
"E  c #C6C6C8",
"W  c #C7C8CA",
"Q  c #CACBCD",
"!  c #CDCED0",
"~  c #CFD0D2",
"^  c #D2D3D5",
"/  c #D6D7D9",
"(  c #D7D8DA",
")  c #DADBDD",
"_  c #D9DADC",
"`  c #D9DDDE",
"'  c #DCDDDF",
"]  c #DADADD",
"[  c #DDDEE0",
"{  c #DEDFE1",
"}  c #DEE0E2",
"|  c #E0E1E3",
" . c #E1E2E4",
".. c #E2E3E5",
"X. c #E0E4E5",
"o. c #E1E5E6",
"O. c #E3E3E5",
"+. c #E6E7E9",
"@. c #E7E8EA",
"#. c #E8E9EB",
"$. c #EAEBED",
"%. c #E9EDEE",
"&. c #EBECEE",
"*. c #ECECEE",
"=. c #EAEBED",
"-. c #EDEEF0",
";. c #EEEFF1",
":. c #EDEEF0",
">. c #EFF0F2",
",. c #EEF2F3",
"<. c #EFF3F4",
"1. c #EFF0F2",
"2. c #F0F1F3",
"3. c #F1F1F3",
"4. c #F1F2F4",
"5. c #F2F2F4",
"6. c #F2F3F5",
"7. c #F1F5F6",
"8. c #F3F4F6",
"9. c #F4F5F7",
"0. c #F5F5F7",
"q. c #F2F3F5",
"w. c #F3F7F8",
"e. c #F5F6F8",
"r. c #F6F6F8",
"t. c #F6F7F9",
"y. c #F6F7F9",
"u. c #F8F6F9",
"i. c #F7F8FA",
"p. c #F6F9FA",
"a. c #F8F8FA",
"s. c #F8F9FB",
"d. c #F9F9FB",
"f. c #F9FAFC",
"g. c #FAFBFD",
"h. c #FBFBFD",
"j. c #F8FCFD",
"k. c #FBFCFE",
"l. c #FBFFFF",
"z. c #FCFDFF",
"x. c #FDFDFF",
"c. c #FDFEFF",
"v. c #FCFFFF",
"b. c #FEFEFF",
"n. c #FEFFFF",
"m. c white",
"M. c #FDFEFE",
/* pixels */
"; ; ; ; ; ; ; ; ; ; ; ; ; ; ; ; ; ; ; ; ; ; ; ; ; ; ; ; ; ; ; ; ; ; ; ; ; ; ; ; ; ; ; ; ; ; ; ; ; ; ; ; ; ; ; ; ; ; ; ; ; ; ; ; ",
"; ; ; ; ; ; ; ; ; ; ; ; ; ; ; ; ; ; ; ; ; ; ; ; ; ; ; ; ; ; ; ; ; ; ; ; ; ; ; ; ; ; ; ; ; ; ; ; ; ; ; ; ; ; ; ; ; ; ; ; ; ; ; ; ",
"; ; ; ; ; ; ; ; ; ; ; ; ; ; ; ; ; ; ; ; ; ; ; ; ; ; ; ; ; ; ; ; ; ; ; ; ; ; ; ; ; ; ; ; ; ; ; ; ; ; ; ; ; ; ; ; ; ; ; ; ; ; ; ; ",
"; ; ; ; ; ; ; ; ; ; ; ; ; ; ; ; ; ; ; ; ; ; ; ; ; ; ; ; ; ; ; ; ; ; ; ; ; ; ; ; ; ; ; ; ; ; ; ; ; ; ; ; ; ; ; ; ; ; ; ; ; ; ; ; ",
"; ; ; ; ; ; ; ; ; ; ; ; ; ; ; ; ; ; ; ; ; ; ; ; ; ; ; ; ; ; ; ; ; ; ; ; ; ; ; ; ; ; ; ; ; ; ; ; ; ; ; ; ; ; ; ; ; ; ; ; ; ; ; ; ",
"; ; ; ; ; ; ; ; ; ; ; ; ; ; ; ; ; ; ; ; ; ; ; ; ; ; ; ; ; ; ; ; ; ; ; ; ; ; ; ; ; ; ; ; ; ; ; ; ; ; ; ; ; ; ; ; ; ; ; ; ; ; ; ; ",
"; ; ; ; ; ; ; ; ; ; ; ; ; ; ; ; ; ; ; ; ; ; ; ; ; ; ; ; ; ; ; ; ; ; ; ; ; ; ; ; ; ; ; ; ; ; ; ; ; ; ; ; ; ; ; ; ; ; ; ; ; ; ; ; ",
"; ; ; ; ; ; ; ; ; ; ; ; ; ; ; ; ; ; ; ; ; ; ; ; ; ; ; ; ; ; ; ; ; ; ; ; ; ; ; ; ; ; ; ; ; ; ; ; ; ; ; ; ; ; ; ; ; ; ; ; ; ; ; ; ",
": - ; = : : ; ; = = - : : = = : - = : : & = : - : = : # : : & : : % & 2 & - : : 1 = = : = = : = ; ; : = = = * ; * = * * : ; = ; ",
"= # = 4 $ 1 = : 1 3 % > = # : * : < = : : - : : - = - 5 % 1 : & = 3 = * - 1 & = & : 2 : = ; : = : = * < ; * < ; : : ; ; ; * * : ",
": > : @ * = @ = + % # $ : 4 * : & = + $ > - : * % # % & $ % > - : - % = - - * > = % @ # % % & > ; : ; X $ : $ > = = = : : ; ; : ",
"; & $ y Y ! ! ) / L Z r = $ & 1 % 7 m P ^ ' ' ! Q H k 5 r 2 % : = - : > = : : % 1 t s s c D E ..<.) T U g * : % : ; ; ; ; : : = ",
"1 % = >.t.n.n.n.n.k.n.n.V # 7 = ; t $.n.n.n.n.n.t.n.g.n.n.Q < & : = - 1 > @ 0 U #.i.k.n.n.n.n.n.k.n.n.w.8.T 7 # < : < ; * ; > = ",
"= : > _ k.n.n.8.t.g.n.n.3.e = = & 6 ! ;.&.>.n.n.n.n.n.| Y v > = - % 2 * # c n.n.n.n.g.g.n.n.a.g.k.n.w.n.n.n.O.l * % ; > * = > ; ",
"= : # 8 W | 0.n.n.n.n.3.n.! = : : % > : 7 e I n.t.#.V 1 - o : 1 : 3 @ = R n.t.0.a.g./ M d v V c Z J ^ &.k.n.>.k.j 1 % : : ; : ; ",
": > = % - : h n.n.n.n.n.5.n.d # : 2 = & > o m n.a.n.y @ : > : = : % = j 0.n.5.n.*.f # # & # # % @ = = < l O.n.>.n.c ; ; : ; ; = ",
"= - - > ; - 4 n.n.n.i.g.n.n.( e % : : : ; * q k.n.5.g * : - = : - ; > ~ k.n.n.[ < ; - : > : : > : = : - @ p n.i.g.n.q @ 1 = - = ",
"; - = : - : 4 a.0.n.n.[ n.0.n.E : - + : : = 7 5.n.0.d # 1 > = & 6   p k.8.n.0.7 : = = : : - - : = > - = : 1 ( n.g.g.t & = : % : ",
": - = - ; : < ..n.>.W & A n.k.n.1 % 1 < = % 4 k.n.n.M * > & : < * = I n.n.a.R * : = = ; : - = : = > - = 1 $ k n.n.t.B : % > & : ",
"= - = : : ; = Q n.n.H . 2 n.5.n.v # 3 % ; > - U n.t.c o : = : & - 2 ..g.g.n.J * : - - : : ; : : - = : ; = : = ..n.k...2 % < > = ",
"= - - : : ; = R g.n.P > = c n.t.3.9 = - : > $ c n.g.v + > - > = = 9 t.n.g.n.f % : : ; : : : : : : & > - & 2 o D n.g.n.p $ : : * ",
"= : = - : : = T n.a.D X : @ D n.n.v X 1 = = = M n.n.V = : * : < % 8 >.n.g.3.4 - : : - - ; : ; ; : = : = : ; = p n.i.n.D # : & : ",
"- : = = : : $ H t.n.P > = - & ;.k.R 3 % : : = S n.a.h @ : : = % 2 $ ^ n.>.5.0 % ; - - = - ; ; - - - - = 1 = : 0 n.g.n.! % : = : ",
"= ; = - > : X M n.0.Q - : = = c 0.n.) : 1 : % Q n.n.l = ; : - > % 1 ' t.n.) % 1 : ; - - - : : - - = - : ; : # w n.n.n.^ & = > & ",
"= > - = > : % s n.i.~ = = > & = U n.n.K $ = = z n.n.n & - : = : : - R n.n.+.4 * 1 % = ; : * : = - < * : : : : y n.i.n.m % - - < ",
"= = * = ; = % f n.O.4 # : = 1 # q >.n.n.k $ : > 8.5.p % = - * = : + a g.n.0.d : = : > % : > 1 = - & = 1 # * & l g.t.n.p @ 1 < @ ",
"> : ; : : - = f n.g.Z 1 > = > = $ C n.n.f & : 7 i.8.7 - : : ; ; = : 1 ;.n.n.c   > > > = 1 = = = : : : 1 = 2 $ m n.k.n.q % = 1 : ",
"; = - : = - & t n.t.0.= $ 1 - > % r t.n.@.5 O p t.;.; = : : - = : & 3 5.t.n.+.8 % % 1 : = & > : $ : = = ; : > ) n.0.P = : = : = ",
"= = : : ; < & 8 t.g.;.8 = 1 = - = - ^ g.n.$.5 - k.5.1 = - ; = = = : * M n.t.g.@.V > @ : 1 - < & 1 : = > 1 # r t.5.n.c @ : = - = ",
"; : : ; : > $ 8 g.n.i.q : & - = 2 * : ^ n.0.I f n.n.p = ; : - : < = @ 5 ;.n.n.a.k.h : = = & 2 : = & 1 - $ 7 R n.n.8.r % > = = 1 ",
"- ; & * : : % a n.5.} : @ = < ; & 1 : < n.k.5.;.g.g.B $ = : & = & 2 = # J n.a.a.n.k.^ g < $ = @ > @ # % d +.n.5.) z @ $ < > * % ",
": ; & : 5 6 7 H 8.n.$.m 1 1 - = < = : % c n.n.n.n.n.Y & : 1 - : ; = 2 = & Z 5.n.g.k.n.n.3.B e r 4 j I ^ g.n.F A 7 @ - 2 & : > = ",
"* > = K n.i.Y ;.n.t.n.n./ +.0.0 $ : 1 % & E n.n.n.n.Q = > & 1 = = = 1 = : $ k U t.n.k.3.8.n.n.k.n.g.a.n.k.n.*.l & ; : ; = = ; : ",
"1 % 4 Q i.n.g.n.n.n.t.5.n.n.+.8 : = : : : 1 U 5.*.L e * : > % - < - - % 1 : # = D >.;.n.n.;.n.n.i.n.n.>.+.H 3 & : : : - = - ; = ",
"= % * 4 9 j j j h Z h k q u , # : # = : : * 1 2 2 : = @ 3 = > 1 - % = 2 : : - : @ 3 p D Q | +.5.+.$.H u 2 & = 3 - - = = = : : - ",
"< : ; % * = $ : $ $ o o - - & 2 : > 1 : $ > = = & 1 = : : 1 - % ; > % : * % : : 2 % % # = 2 = : : 3 % % * = 3 & - - = = - : : - ",
"= * < : ; < 1 % 1 - 5 > 2 = - > : : # : 4 $ > - < - & > - = = = % 1 1 - 1 : ; = % > - : = @ = # * @ = % - : @ > : : : : : - = = ",
"= : * % * $ % & % @ : 1 # 2 3 % @ > 1 > < 4 - : : & 6 = = < p h u X = : & - : : : : 4 5 r s d r e r j h 0 7 2 # = = - : ; = = : ",
"; : ; m Q P Y ~ m N [ $..._ g.R Z Y 8.5.>.t.0 & : : = - : ^ t.n.n.j * 2 - : 1 % # t 5.n.n.n.t.n.i.k.n.n.8.g.;.d - = = = - - ; : ",
"; = * l P j.k.d 8 1 p #.g.n.P 8 3 y Q t.n.n = : : = > - 8 g.n.i.3.a.: % 2 = : : : - u G a.n./ c j g h p n ( 8.g.5 1 : ; : ; - ; ",
": % : % X i ) 1 # 1 O G n.g.b $ > o m n.V o = : = < % : V n.n.t.n.$.3 = = 1 - - - = # < ..n.t   & % * @ % ; l n.) 2 = = > & ; = ",
"; ; % ; 2 $ a 7 = 1 # L n.n.O.3 = : Q k.0 - > ; > = : 4 n.n.8.n.n.$.r # : : ; - : 2 - % W n.p 1 : = = 4 = % 7 ..g.0 ; - < & ; - ",
"% < < * * * Z j O > e n.+...0.: = # ) +.% & & < * > % y n.n.c r +.n.G - 1 = = - & : - # R a.4 @ = : = & @ = P n.n.y = & < - : - ",
"< % ; < % : ^ ~ = # 0 g.e z u.z = 1 i.L $ 2 2 : - 1 = R t.$.> @ F n.} 1 = - : : > = : - ^ ;.a 9 u % < l n ( g.5.L 6 = = > = : = ",
"> * $ ; < # m i.9   j ;.= a n.Y o p g.m % ; - % 2 # # Q n.[ > $ j n.n.e # 1 < = 1 & : - [ n.k.t.3.n.n.3.n.;.n.v 1 % > 1 : & - : ",
"* 2 ; * : $ u n.v = ! / & t n.*.= H n.v : - = 2 * : w $.a.H O & 4 | n.V # : : = = * - : @.n.8.W ( W W ~ n.n.m % & = : - = - : - ",
": = * 1 : * 8 n.A 1 g.R & 2 ' n.a $.g.7 $ : > = > # 9 n.a.H > 9 r W i.W - & ; < : < : 3 8.;.p $ % = # = A n.) 3 1 1 - & = : : = ",
"= ; = : = : % R ) t n.Y % % L n.5.n.#.= 3 & : : > # x n.g.n.n.t.n.n.n.#.7 = - - = : % 5 n.n.7 = 1 = : = 3 g.a.k + : > > ; = = - ",
"; : * ; : : * K k.k.k.B % % P k.n.*.n.9 & = : - = 1 *.a.g.[ A I D U n.n.j @ 2 - : = 2 = 3.n.: > : = < = 1 -.k.C % < % * : : * * ",
"; ; = : ; ; $ N k.>.k.s $ ; n n.0.n.;.2 = : : > = u *.n.v $ @ = % $ l *.Z & = 1 : 1 > & 5.) 2 % $ : ; = 1 +.8.! @ 3 g 1 * * < < ",
"; = ; > = : # a i.k.k.d 2 * y i.i.n.G & 1 : # $ o J n.&.7 o < : : O d n.Q : . * & O $ p n.n.R l 9 ; = < < U k.n.V ~ k.G * 1 # = ",
"; * : < = < & 9 n.i.} 2 % : 4 &.n.a.h # = = p R n.n.;.n...m = = 1 F k.n.8.a._ l p J ( n.5.t.n.n.n.6 ; : X j n.8.j.k.k.k & ; ; < ",
"; * : > = < = < w f 0 * < & * 6 m c > = - = s Y H H D V C k : : : l T / ^ R C y g ~ I Z B D V v w ; ; = < ; t m T G l > ; : ; = ",
": * ; ; * : = = & & ; $ : 3 * * $ % O < 1 = $ @ - $ & % # + ; = = $ # * = % % = + : = . % % % $ : ; * < ; ; @ @ @ : X = ; < & ; ",
": = ; = = ; = * = : * ; * % 1 : : : 1 : % ; = : = & : 1 - % 2 = < = - > > : = = 2 @ : > : $ < > * < = : % : ; < ; > 1 ; 1 @ > : ",
"; = ; = ; ; ; ; ; % ; < ; ; * ; : % : = = 2 % = : ; ; & : < & : = = : - & ; : : = : ; : - : : = < % * 1 ; * < * > = * : % > < % ",
"; ; ; ; ; ; ; ; ; ; ; ; ; ; ; ; ; ; ; ; ; ; ; ; ; ; ; ; ; ; ; ; ; ; ; ; ; ; ; ; ; ; ; ; ; ; ; ; ; ; ; ; ; ; ; ; ; ; ; ; ; ; ; ; ",
"; ; ; ; ; ; ; ; ; ; ; ; ; ; ; ; ; ; ; ; ; ; ; ; ; ; ; ; ; ; ; ; ; ; ; ; ; ; ; ; ; ; ; ; ; ; ; ; ; ; ; ; ; ; ; ; ; ; ; ; ; ; ; ; ",
"; ; ; ; ; ; ; ; ; ; ; ; ; ; ; ; ; ; ; ; ; ; ; ; ; ; ; ; ; ; ; ; ; ; ; ; ; ; ; ; ; ; ; ; ; ; ; ; ; ; ; ; ; ; ; ; ; ; ; ; ; ; ; ; ",
"; ; ; ; ; ; ; ; ; ; ; ; ; ; ; ; ; ; ; ; ; ; ; ; ; ; ; ; ; ; ; ; ; ; ; ; ; ; ; ; ; ; ; ; ; ; ; ; ; ; ; ; ; ; ; ; ; ; ; ; ; ; ; ; ",
"; ; ; ; ; ; ; ; ; ; ; ; ; ; ; ; ; ; ; ; ; ; ; ; ; ; ; ; ; ; ; ; ; ; ; ; ; ; ; ; ; ; ; ; ; ; ; ; ; ; ; ; ; ; ; ; ; ; ; ; ; ; ; ; ",
"; ; ; ; ; ; ; ; ; ; ; ; ; ; ; ; ; ; ; ; ; ; ; ; ; ; ; ; ; ; ; ; ; ; ; ; ; ; ; ; ; ; ; ; ; ; ; ; ; ; ; ; ; ; ; ; ; ; ; ; ; ; ; ; ",
"; ; ; ; ; ; ; ; ; ; ; ; ; ; ; ; ; ; ; ; ; ; ; ; ; ; ; ; ; ; ; ; ; ; ; ; ; ; ; ; ; ; ; ; ; ; ; ; ; ; ; ; ; ; ; ; ; ; ; ; ; ; ; ; ",
"; ; ; ; ; ; ; ; ; ; ; ; ; ; ; ; ; ; ; ; ; ; ; ; ; ; ; ; ; ; ; ; ; ; ; ; ; ; ; ; ; ; ; ; ; ; ; ; ; ; ; ; ; ; ; ; ; ; ; ; ; ; ; ; "
};
