/* XPM */
static char *fc28e70335b3478c8bffe9ef21dc7094ZYCzUQNRfOvM7q4P[] = {
/* columns rows colors chars-per-pixel */
"64 64 256 2 ",
"   c #0D0906",
".  c #150B06",
"X  c #140C09",
"o  c #180D07",
"O  c #1C120C",
"+  c #17110A",
"@  c #1B1512",
"#  c #1C1915",
"$  c #1A1A1A",
"%  c #0B1112",
"&  c #3D0409",
"*  c #22150D",
"=  c #26160B",
"-  c #241A14",
";  c #221D1A",
":  c #261B14",
">  c #360B16",
",  c #25221D",
"<  c #2B221C",
"1  c #2B2219",
"2  c #34241A",
"3  c #0B1D3C",
"4  c #071B39",
"5  c #141A29",
"6  c #361423",
"7  c #0D223E",
"8  c #192333",
"9  c #252422",
"0  c #2A2523",
"q  c #2C2926",
"w  c #2D2B2A",
"e  c #26282D",
"r  c #332B24",
"t  c #332E2B",
"y  c #342A24",
"u  c #35312D",
"i  c #3B332D",
"p  c #343332",
"a  c #3B3532",
"s  c #3C3935",
"d  c #3B3B3B",
"f  c #2C2B36",
"g  c #4C040C",
"h  c #470408",
"j  c #54050B",
"k  c #5B040C",
"l  c #53090D",
"z  c #5B0B0C",
"x  c #580506",
"c  c #4C0712",
"v  c #4B0A13",
"b  c #450B15",
"n  c #540B13",
"m  c #5B0A13",
"M  c #590714",
"N  c #47121B",
"B  c #571319",
"V  c #63050C",
"C  c #630A0C",
"Z  c #67060A",
"A  c #640A12",
"S  c #650917",
"D  c #681215",
"F  c #4E1924",
"G  c #4C2229",
"H  c #423E3A",
"J  c #443C34",
"K  c #583638",
"L  c #4F2B2F",
"P  c #683537",
"I  c #4C2C1F",
"U  c #46423C",
"Y  c #58483E",
"T  c #77523C",
"R  c #6E4A37",
"E  c #0B1E41",
"W  c #0D2343",
"Q  c #0C244D",
"!  c #0E2847",
"~  c #122544",
"^  c #13264C",
"/  c #14294C",
"(  c #182949",
")  c #0D2954",
"_  c #0A2654",
"`  c #132B54",
"'  c #142E5A",
"]  c #162B53",
"[  c #1B335B",
"{  c #193257",
"}  c #2B3447",
"|  c #383948",
" . c #283859",
".. c #2E3149",
"X. c #1A3562",
"o. c #233A65",
"O. c #253F70",
"+. c #423A43",
"@. c #573846",
"#. c #663040",
"$. c #36445C",
"%. c #2A4368",
"&. c #354667",
"*. c #364A73",
"=. c #3B5175",
"-. c #4A4543",
";. c #4D4C4C",
":. c #474645",
">. c #544B48",
",. c #56524D",
"<. c #545353",
"1. c #5D5C5B",
"2. c #5A5756",
"3. c #544957",
"4. c #674845",
"5. c #6A5549",
"6. c #765849",
"7. c #664B56",
"8. c #675959",
"9. c #755B55",
"0. c #734A4D",
"q. c #6C635A",
"w. c #776559",
"e. c #575968",
"r. c #485777",
"t. c #4D536D",
"y. c #665B68",
"u. c #705C6C",
"i. c #5B626C",
"p. c #5B6576",
"a. c #5F707A",
"s. c #646464",
"d. c #69676B",
"f. c #7B6C63",
"g. c #766A69",
"h. c #7D7368",
"j. c #686976",
"k. c #756C76",
"l. c #68717B",
"z. c #767379",
"x. c #5F605B",
"c. c #865B49",
"v. c #855D53",
"b. c #88624D",
"n. c #886958",
"m. c #946B55",
"M. c #966B57",
"N. c #99735A",
"B. c #916A52",
"V. c #A5765B",
"C. c #A67358",
"Z. c #856966",
"A. c #847466",
"S. c #83746B",
"D. c #8A7769",
"F. c #997866",
"G. c #887A74",
"H. c #967C76",
"J. c #8F6F6C",
"K. c #AA7D64",
"L. c #A57B67",
"P. c #AA7C73",
"I. c #82593D",
"U. c #8C8379",
"Y. c #968479",
"T. c #9A816F",
"R. c #AC836B",
"E. c #A8836A",
"W. c #B4846B",
"Q. c #A98876",
"!. c #B48B73",
"~. c #B78B76",
"^. c #BC937B",
"/. c #B9947A",
"(. c #A9907D",
"). c #AE815A",
"_. c #C48D74",
"`. c #C3947D",
"'. c #C7997B",
"]. c #CE9675",
"[. c #D7A57E",
"{. c #CDA17A",
"}. c #475783",
"|. c #556684",
" X c #526785",
".X c #767889",
"XX c #67758D",
"oX c #675F84",
"OX c #867C82",
"+X c #76889A",
"@X c #6E8192",
"#X c #7F92A6",
"$X c #978A84",
"%X c #9A9389",
"&X c #9B9995",
"*X c #8C8689",
"=X c #A68984",
"-X c #A8928B",
";X c #B99886",
":X c #A89B96",
">X c #B89C95",
",X c #B08E82",
"<X c #B3A29B",
"1X c #AEACAE",
"2X c #9EA19C",
"3X c #C39C84",
"4X c #CB9C84",
"5X c #C59C89",
"6X c #CB9E8D",
"7X c #C4A38B",
"8X c #CCA38C",
"9X c #CAA488",
"0X c #D3A58C",
"qX c #D4AA8C",
"wX c #DAA987",
"eX c #CCA592",
"rX c #C9A996",
"tX c #D4AB93",
"yX c #DBAC94",
"uX c #D6AA98",
"iX c #DCB296",
"pX c #DCB39B",
"aX c #D6B399",
"sX c #D5B08E",
"dX c #E2B49C",
"fX c #E7B99A",
"gX c #F2BD9D",
"hX c #E3B08B",
"jX c #DCBAA4",
"kX c #D8B7A5",
"lX c #CEB0A8",
"zX c #E4B5A1",
"xX c #E4BBA3",
"cX c #EABBA3",
"vX c #E6BCA9",
"bX c #EDBEAD",
"nX c #F3C39E",
"mX c #EBC4AB",
"MX c #E9C4A8",
"NX c #F5C7A9",
"BX c #EBCAB4",
"VX c #E8C4B4",
"CX c #F3CBB6",
"ZX c #F8D3BA",
"AX c #DDC1B5",
"SX c #99B1C7",
"DX c #B0BCC8",
"FX c #B8C8D8",
"GX c #B4C2CE",
"HX c #BDD1E4",
"JX c #C9D5DC",
"KX c #D7D9DC",
"LX c #CACACE",
"PX c #F3D4C6",
"IX c #DAE5E5",
"UX c #E2E5E7",
/* pixels */
"l j S k j B 0.h.k.z..X.Xe.z.1X:Xh.q.f.A.w.w.w.n.n.F.L.;XrXkXkXVXjXaXaXeX5X;X5X7X3X3X5X!.F.Q.Y.D.S.h.q.,.-., q 0 q < , 0 0 9 9 9 ",
"l z S k j n K S.k.j..X.Xe.z.1X$Xf.q.w.w.w.w.w.w.D.F.E.(.;XuXkXVXVXkXuXeX6X5X7X7XtX5X;X!.N.F.(.D.A.f.,.J a u U U U s a s H d d d ",
"l m A k M v G Z.G.j..XoXt.j.&Xh.U.q.q.f.w.5.6.w.n.F.E.(.;XuXvXBXjXkXaXuXaXuX7X;XtXtX~.K.L.F.T.D.w.q.Y J J U -.U H a t i s s p p ",
"g z k k M n b 9.z.z..Xi.e.j.&XU.$Xw.q.f.w.5.5.w.N.F.(.5X7XaXxXvXjXMXjXpXkXuXeX8X7XtX~.K.Q.F.F.D.A.w.J y < < : < - O o o O O + + ",
"l l m k j n v P G.z.oXe.e.j.&X&X$Xh.f.f.w.5.5.n.N.F.~.7XeXaXjXjXMXmXmXxXxXjXuXtX7X3X`.!.L.N.F.D.D.w.J 1 o . . o o o . . o . . . ",
"l j m k j m l F G.z.j.e.e.z.2X&X&XU.G.S.w.5.5.n.n.N.R.;XeXtXxXxXxXMXmXbXbXxXaXtXpXtX8X/.K.m.F.F.A.q.J < : 1 : : : : : = * * * * ",
"g l m j z A z v 7.z.y.e.j..X1X2X2XU.S.h.w.4.5.n.F.L.Q.~.8XtXpXxXMXxXvXzXpXiXpXpXdXdX0X^.W.m.E.T.D.5.I * * : : : : = = * O o O O ",
"h l n j A A z v K OXy.e.j..X&X&X&XU.h.q.w.w.6.n.F.F.R.R.9XtXpXpXpXpXmXcXyXtXpXxXaX0X8X4XR.m.;XT.D.>.2 o - O O O O O O O o o O O ",
"g j l j C Z x n F Z.y.y.j.z.1X2X%XG.h.S.w.5.6.b.F.R.!.^.8X0XtXyXpXxXcXzXdXdXdXpXaXyX4X~.V.m.(.Q.Y.Y : : , < , , 0 < < < < < < < ",
"g l l j Z Z x l b 0.u.j.j.OX2X%X$Xg.S.U.f.9.6.n.N.L.R.~.4X0X0X0XtXpXzXcXzXdXpXpXiX0X0X`.R.N./.;XY.5.< < t w t u a i u t r t t u ",
"g l l j Z Z x z v G y.j.j.2X&X*XU.q.G.Y.A.w.6.b.N.F.R.!.`.3X4X4X0XpXzXcXcXdXiXpXfX0X4X`.N.m.;X(.Y.q.r q a s p d a s H H H H H d ",
"h l l j C Z x z n N 8.j.d.1X&X$Xg.w.Y.$XD.w.6.b.N.N.R.!.^.`.`.4XtXpXcXcXcXpXyXpXiXiX^.^.K.N.(.;XU.U.,.U ;.,.;.<.<.<.2.<.<.2.2.2.",
"h l l j C Z Z C n b 7.d.d.1XU.G.8.h.Y.Y.D.6.T 6.m.m.K.~.`.4X4XtXdXdXcXcXcXdXiXpXdX0X0X0X!.F.(.;XA.%XS.,.s.d.d.s.s.s.s.1.1.8.y.s.",
"h v M k C Z Z C n b @.u.k.1XG.8.8.G.Y.U.A.6.T T m.m.K.!.`.0XtXpXzXdXcXcXzXdXdXpXpX4XMX`.R.F.Q.(.w.%XY.2.s.d.d.s.s.d.d.d.d.d.s.s.",
"h n m k C C Z C m & G y.z.2X$Xq.f.G.Y.D.w.6.R T m.N.!.W.W.4XyXdXcXzXbXbXzXzXzXpX9XiXdXR.^.Q.N.(.A.Y.U.Y ,.2.1.<.<.1.s.s.s.s.1.1.",
"g n m k C C Z C j h F 8.d.&X<XH.H.G.Y.A.w.6.R R B.K.3XR.V.`.yXzXmXbXCXCXzXzXcXtXxXpX8XtX3XQ.F.T.D.f.f.y s U ;.;.;.,.<.,.,.<.<.,.",
"j j k k z C x C j h N 4.8.:X:XH.$XY.G.f.w.6.R R I.N.R.~.R.R.4XtXCXbXVXVXxXmXBXvXVXkXaXaX3XE.F.T.D.f.5.2 J s ;.-.-.-.-.-.U -.>.U ",
"M j k z z z k C M g c L 8.:X:XH.-X$XU.S.5.6.R T T V.L.!.7X9X^.dXVXZXVXVXBXBXBXCXVXkXkXrX/.Q.D.Y.D.h.,.: r q a a a a a i t t u r ",
"B g j z z z V V j g c N 7.$X-XJ.-X$XU.Y.9.5.T b.N.!.7X/.;XeXpXCXCXPXBXBXCXCXCXVXkXkXkX7X7XE.n.Y.A.w.J o O @ @ @ # # # @ @ @ O O ",
"F v l z z z C C j h M v >.H.=XZ.:XY.U.%X9.6.6.M.L.!.;X;XrXkXjXZXZXZXCXPXCXVXvXeX-XlXkXjXrXF.D.$XA.5.y - , 0 ; ; 9 9 0 ; 0 < ; 0 ",
"K b g l z z Z C l h M c G Z.=XJ.<XG.G.-X9.6.b.N.Q.~.rX>XlXrXvXvXjXmXVXBXBXaX5X,X-X=X;XrXaXQ.F.Y.G.U : , w w 0 q t w t w q t q q ",
"4.F g j z z Z A j h S m N 9.=X=X-X9.S.-Xw.6.6.m.E.5XkXAXVXrXrXuXeX5XkXBXaX7XeXrXY K (.Q.aXF.F.=X$Xt O 0 q $ q w 9 0 a w , p p 0 ",
"8.L v g z C Z A g h S S N 0.H.>X-X4.S.:Xf.5.6.b.~.(.n.9.5.rXrX7X3XL.kXPXeX;X7X;XZ.9.>XF.8XE.F.>X%X0 < -.H q ;.<.p +.y.;.p 1.s.:.",
"g.K N g m C Z A l h S M b 4.J.<X>X5.G.:Xf.5.6.n.;X6.I K -X>XT.rXL.c.eXBX8XE.M.v.Z.Q.>X;X'./.b.;X-X0 s 8.<.p s.d.d <.G.1.d k.z.;.",
"d.7.N c A C Z A l h S S h K Z.lX-X9.G.-Xf.9.6.F.m.c.Q.w.Y.Q.H.~.M.b.tXZX9XR.~.6XlXvXVX8X3X!.b.,XG.< p s.<.t 1.d.d ;.*X8.| k.z.;.",
"s.y.G c m Z Z C l g S M h G w.>XH.9.H.-XG.w.w.n.b.E.;XVXAXAXrXrXK.C.tXZXzX~.0XuXPXPXBXpX9XW.c.,XS.; w <.<.p <.s.+.;.OXy.+.d.z.d ",
"y.g.@.v M V Z V l l A M h N 9.-XZ.9.Y.$XG.w.6.n.L.3X5XvXBXBXjX5XC.C.0XNXcXW.0XzXCXBXxXyX0XV.c.,Xq.; t <.1.:.1.s.y.8.k.1.;.1.s.:.",
"e.k.7.N M V A x l l m j g & 4.=Xn.9.Y.$XU.D.6.R.!.^.tXeXBXBXjXR.C.K.wXNXcXW.'.cXCXCXcXfXwXW.b.;Xq.H ,.s.d.1.s.s.k.d.8.<.1.;.;.;.",
"e.z.u.G n V A x j j M j c h P H.Z.Z.f.$XY.D.6.Q.W.`.dXdXvXmX0XV.W.W.0XNXNX{._.fXcXcXfXwX[.).m.;X>.s ;.,.x.x.1.;.:.H s s -.;.<.;.",
"i.z.k.K n k C z j j z g g h G v.H.-X9.Y.U.A.n.F.^.`.0XyXtX0X'.C.W.W.4XNXgX[._.wXfXfXMXwXwXW.!.rX: ; u q p :.H t u t t $ ; ;.d.;.",
"p.l.z.7.B k z z k j M h j c b 0.>XrXf.H.G.D.n.N.`._.4X0XyXwXwXV.W.W.'.NXfX[.].wXgXNXnXhXwX).'.rX: 0 a 9 $ 9 , ; U H s # # a 1.<.",
"l.l.z.u.F M z x k j M h g n h P ;X>XS.G.G.A.b.L.`._.4XwXwXfXwXC.V.K.~.NXgXwX[.hXgXNXnXhXhXV.eX>X< a >.u # @ $ , 0 q 0 ; q 0 w <.",
"p.l.l.y.#.n l j x k j h c g z B P.=Xq.U.h.D.b.N._._.{.4XwXhXwXV.V.N.`.NXfXwXiXdXgXNXnXhXhXV.eXF.* , u a - X $ t + X + @ a u w a ",
"p.l.l.j.0.B l j k k l h v l C z c.P.h.$XS.A.6.B.W._.].wXwXhX{.W.M.m.`.NXcXqXMXMXcXNXgXfXhXV.uX4.o O - t - X @ u @ ; @ + 0 0 0 t ",
"i.j.l.k.u.G g l k j c h v n C j P J.Y.%XS.w.6.b.K._._.wXwXwXwX4Xc.B.4XNXxX9XmXmXNXNXgXgXdXL.F.2 * , + , # @ @ 9 t U w , $ # w p ",
"i.j.k.k.k.K v M j n c & c m C j B Z.Y.%Xh.9.T B.C._.].wXwXyXfX4XT m.tXCXmX8XNXZXNXCXNXgXyXE.I : t -.s H 0 , ; w 2.8.d w 9 + q w ",
"e.l.j.k.k.7.N n l l c h c m A k v 0.S.U.A.5.R m.C.W.'.wXyXdXmXR.B.L.pXBXZXtXmXZXBXCXNXdXpXE.= r t <.<.8.p $ $ U 1.,.w 9 p @ w w ",
"e.j.j.z.j.y.F c g l g h l m A A & K g.G.S.5.T N.C.V.'.0XyXdXCXE.M.L.xXCXZXpXzXCXCXmXNXyXpXF.2 r q -.;.-.; @ # d ;.:.p $ a @ 9 p ",
"e.j.l.l.j.g.K v v g h h l z S S & @.g.S.A.5.6.L.K.N.!.9XaXxXCX3XL.L.MXZXZXzXcXZXCXmXMXyXuXn.2 , t H -.t + # # t 2.2.<.0 p $ # u ",
"e.i.l.l.l.k.@.b v g h h z C A m 6 7.G.g.w.R c.K.K.m.W.9XdXcXmXeXuX^.CXPXZXcXzXNXCXBXMXdXtXn.= q t a >.s @ @ O t s.d.8.q s a ; u ",
"e.e.l.l.l.y.7.F c h h h j D V M 6 u.*X8.f.6.c.K.V.B.R.4XdXmXuX6XM.K.CXZXZX'.dXcXCXMXfXyX0X6.: , < t i < : < : ; >.8.H ; H t ; q ",
"e.e.l.a.l.e.7.L h g h h z k D N L z.2X,.f.6.c.L.V.M.K.0XdXcXeX6Xc.m.pXMXqX^.cXfXmXNXnXyX6X6.: # * y i : : y 0 : r J r O r - o < ",
"e.e.l.l.l.e.y.@.b l h h z m v K +..X1X;.w.6.b.C.V.M.K.0XzXyX8X3XL.L.^.qX9XyXcXdXmXBXiX0X3XR O + * : y 2 : 1 : < * < : . : . . : ",
"e.e.l.l.j.e.y.7.N v & h v B 6 u...+XFX<.8.9.v.M.N.B.R.0XdX4XtX3X`.^.7XsXsXdXcXxXfXNXdX9X!.I o @ * O : : : O O : - * O . * . o * ",
"e.e.j.l.p.e.y.u.G b & h N 6 3.oX8 +XLXk.5.w.c.m.N.m.!.yX6X`.tX3X3X/.MXBXpXpXmXdXaXNXfX3XR.2 O @ O o * O . o o O O . X X O X . o ",
"e.e.p.l.i.e.y.k.@.& h b > +.oXr.7 *XGX&X5.9.6.B.m.N./.qX~.9XqX'.7X7XMXMXMXMXmXpXpXcXyX^.F.= o , < O O O . . o O . X O O X   X . ",
"e.e.p.l.i.e.y.d.7.> b > t e.}.*.~ +XDX1Xf.6.c.b.b.N.'.`.W.yXqX9X7XrXMXiXMXMXaXmXaXMXdX^.b.= @ t q X o * o X X @ X X @ @ X   X X ",
"e.e.i.l.d.e.y.j.3.t > > e.r.}.*.W @XDXDXY.6.v.c.b.N.qXR./.pXaX7X8X7XpXxXMXxXjXBXpXBXiX!.w.+.e $ $   X X X X + X X X X X         ",
"i.e.s.j.y.1.j.y.y...5 t.r.*.*.X.! @XDXGX1X8.9.6.c.E.9X!.tXaX7XeXaXxXBXVXzXvXkXVXpXMXdXQ.3.3.t.$.5 $ $ $ $ # - - - - - ; ; # $ $ ",
"d.e.i.z.e.<.d.j.e.t.&.r.*.o.O.X.! +X1XGXLXOX9.9.c.V.'.qX9XQ.N.b.E.~.;X~.!.3X7XaXfXnXpXH.+.&.*.&.t.} 5 8 f a a s s i u u u u p a ",
"d.e.d.l.e.t.p.p.r.r.r.*.o.' X.` ~ +XDXDXKX1X9.9.b.R.'.fX!.L.3X8X;X;X3XuXvXvXuXtXMXfXtXJ.| &.&.&.&.t.$.} 8 9 0 q r < < 0 0 0 0 w ",
"i.i.j.j.e.p.|.r.*.%.o.` { ` ` ^ ~ +XDXDXJXLXg.6.m.R.4XyXK.K.^./.eXmXZXCXkXpXtXtXnXiX7X9...&.%.%.&.&.&.&.} 5 % %       X X X X X ",
"e.i.j.a.p.r.=.%.%.X.' Q ` ^ ^ ] ~ XXGXDXJXKX*X5.F.K.4X'.W.^.^.^.3X8X8X8XeXuXtXqXdXtX>X3...%.%.o.%.%.&.&.&.$.} 5 $ $ $ $ $ ; ; @ ",
"i.t.p.|. X=.%.X.' X.X._ _ ^ ^ / ( |.GXGXFXKX1X5.D.K.0X`.!.!.R.^.^./.!.9XuXeX9XwXyXuX:X| .. .%.%.o.o.o.%.&. . .$.f f f e q r q < ",
"p.r.|. X=.%.X.X._ ) _ ) Q ` ` ^ ( r.GXGXFXJXLXf.F.R.~.W.!.W.E.!.R.^.`.3X8XaXsX[.0XrX*X.. . .%.%.[ X.o.[ o.o.%. . .....| d s a i ",
"|.|.|.=.o.' _ _ _ _ _ ' Q Q / ] ^ r.GXGXFXJXKX%XZ.Q.K.W.!.K.R.N.~.tXyXtX8XqXwX[.'.>Xj.(  . .{ [ { [ [ X.o.o.o.o. . .} | :.d s U ",
" X X=.[ Q Q ` ' Q _ _ Q ) ` ` { ] &.SXFXFXFXJXLXS.H.F.P.W.W.V.N.^.4X0XtX3X9X{.{./.$X| (  . . .{ { ] { [ X.X.X.X.X.[ { } } d d a ",
"}.%.{ Q _ ` ` ` Q ` ` Q ) ) ` { ` o.SXHXFXGXJXKX:XQ.Q.F.L.L.N.R./.6X4XeX8X3X'.R.T.$X| ~  .( { { { ] ] ' X.X.' ' ' ` ( ( } f f e ",
"O.' Q Q ` ] ] [ W ^ ^ Q ` ) ) ' ] { SXHXFXFXJXKXLX-X=XJ.n.L.K./.W.6X6XeXeX5X!.F.H.&X$.E ( ( { / { ] ` ` ` ` ) ) ` ^ ^ ~ ( 8 8 5 ",
"' _ _ ` ` ` ]  .~ ^ ` ` ` ) ) ' [ / #XHXFXFXFXJXKXLXY.H.6.F.!.!.!.3XuX6X5X3XN.n.&X1Xt.3 ( ( ] ] ] / ^ ^ ^ / ! ! ! ^ ^ ~ ~ ~ 7 4 ",
") _ _ ` ` { ] ] Q ^ ` ` ` ` ` ' [ ( +XHXFXFXFXLXKXUXLXh.9.n.Q.!.~.,XrXrX;X~.J.Y.1XDXt.4 ( ( ^ ] ( ( ~ W W W ! W W W W W W ~ 3 3 ",
"_ ` ` ` { [ [ ` Q ` ` ` ` ` ` ' { ( XXHXFXFXFXJXJXIXUX1X8.w.N.;X/.;X>X>X,XF.=X1XDXSXr.4 ( ( ^ / ( ~ ~ W 7 W W W W W W 7 3 E 3 3 ",
"_ ` ' ' { X.' ' Q ) ` ` ` ` ` ` { / p.FXFXFXFXFXJXIXIXUX:X9.J.m.E.,X=X=XP.Q.1XLXSXSX|.4 W / / W ~ ~ 7 3 4 4 3 3 W W W 3 3 3 3 4 ",
"` ` ` ` [ X.' ) _ ) ' ` ' ` ` ` [ ^ =.DXFXDXDXFXJXJXIXKXKXY.0.R T 6.f.9.=XkXLXDXSXSXXX7 W W W W 7 7 7 4 4 4 4 E E E E 3 4 4 4 4 "
};
